!!!!SEGMENT: pl-sa--154-a-iv-4--005_anonim--missa-agnus.krn
!!!cenid: 17xx:1524
!!!COM: Anonim
!!!COM-rismID: pe30004985
!!!CDT:
!!!CNT:
!!!OPR: Missa
!!!OTL: Agnus
!!!OMV: 005
!!!PDT: 1767
!!!AGN: Sacred; Mass
!!!SMS-siglum: PL-SA
!!!SMS-shelfmark: 154/A IV 4
!!!SMS-shelfwork: 001-005 M
!!!SMS-variant: Canto. PL-Sa 154.A.IV.4:0003; Baſso PL-Sa 154.A.IV.4:0009; Violino Primo PL-Sa 154.A.IV.4:0013; Violino 2DO. PL-Sa 154.A.IV.4:0017; Organo. PL-Sa 154.A.IV.4:0024
!!!SMS-altvar: Canto PL-Sa 154.A.IV.4:0028; Baſso PL-Sa 154.A.IV.4:0032; Violino Primo PL-Sa 154.A.IV.4:0036; Violino 2do PL-Sa 154.A.IV.4:0040; Organo PL-Sa 154.A.IV.4:0043
!!!NIFC-rismSourceID: 1001035514
!!!NIFC-rismChildID: 1001035514
!!!NIFC-islandoraID: none
!!!URL-pdf-islandora:
!!!URL-scan: https://bc.bdsandomierz.pl/dlibra/publication/1540/edition/1508/content @EN{Scan in the Sandomierz Diocese Digital Library} @PL{Skany w portalu Cyfrowa Biblioteka Diecezjalna w Sandomierzu}
!!!ONB-nifc: UWAGA: części Mszy: 1. Kyrie, 2. Gloria, 3. Patrem, 4. Sanctus, 5. Agnus. Uwaga: część Sanctus zawiera Benedictus
!!!AIN: 1 bass 2 clrno 1 organ 1 soprn 2 violn
!!!key: G
**kern	**fba	**kern	**kern	**dynam	**kern	**text	**kern	**text	**kern	**kern
*	*	*group3	*group3	*	*group2	*	*group2	*	*group1	*group1
*part7	*	*part6	*part5	*part5	*part4	*part4	*part3	*part3	*part2	*part1
*staff7	*	*staff6	*staff5	*	*staff4	*staff4	*staff3	*staff3	*staff2	*staff1
*IGcont	*	*IGacmp	*IGacmp	*	*IGcoro	*	*IGcoro	*	*IGacmp	*IGacmp
*ICklav	*	*ICstr	*ICstr	*	*ICvox	*	*ICvox	*	*ICbras	*ICbras
*Iorgan	*	*Ivioln	*Ivioln	*	*Ibass	*	*Isoprn	*	*Iclrno	*Iclrno
*I"Organo.	*	*I"Violino 2DO.	*I"Violino Primo.	*	*I"Baſso	*	*I"Canto.	*	*I"Clarino 2do Ex	*I"Clarino 1mo ex
*I'org	*	*I'vl 2	*I'vl 1	*	*I'B	*	*I'S	*	*I'clno 2 in D	*I'clno 1 in D
*clefF4	*	*clefG2	*clefG2	*	*clefF4	*	*clefC1	*	*clefG2	*clefG2
*	*	*	*	*	*	*	*	*	*ITrd-1c-2	*ITrd-1c-2
*k[f#]	*	*k[f#]	*k[f#]	*	*k[f#]	*	*k[f#]	*	*k[f#c#]	*k[f#c#]
*G:	*	*G:	*G:	*	*G:	*	*G:	*	*	*
*M3/8	*	*M3/8	*M3/8	*	*M3/8	*	*M3/8	*	*M3/8	*M3/8
=1	=1	=1	=1	=1	=1	=1	=1	=1	=1	=1
!	!	!LO:TX:t=P:znaki:problem= f# pod ff#	!LO:TX:t=P:znaki:problem= f# pod ff#	!	!	!	!	!	!	!
8r	.	8r	8r	.	8r	.	8r	.	8r	8r
!LO:SIC:v:s=8G\L	!	!	!	!	!	!	!	!	!	!
8F#\L	.	8dd\L	8gg\L	.	8G\	A-	8b\	A-	8dd\L	8gg\L
!LO:SIC:v:s=8A\J	!	!	!	!	!	!	!	!	!	!
8G\J	.	8cc\J	8ff#\J	.	8A\	-gnus	8cc\	-gnus	8dd\J	8ff#\J
=2	=2	=2	=2	=2	=2	=2	=2	=2	=2	=2
!	!	!	!LO:TX:t=P:problem=mixed beam	!	!	!	!	!	!	!
8B\L	.	8b\L	8gg\L	.	8B\	De-	8dd\	De-	4dd\	4gg\
8G\	.	8b\	8dd\	.	8G\	-i	8g\	-i	.	.
8B\J	.	8dd\J	8g/J	.	8B\	qui	8dd\	qui	8dd\	8gg\
=3	=3	=3	=3	=3	=3	=3	=3	=3	=3	=3
8c\L	.	8g/L	8ee\L	.	8c\	tol-	8ee\	tol-	8ee\L	4gg\
8c\	.	8g/	8ee\	.	8c\	-lis	8ee\	-lis	8ee\	.
8B\J	.	8g/J	8dd\J	.	8B\	pec-	8gg\	pec-	8dd\J	8gg\
=4	=4	=4	=4	=4	=4	=4	=4	=4	=4	=4
!	!	!LO:SIC:v:s=8dd\L	!LO:SIC:v:s=8ff#\L	!	!	!	!	!	!	!
8A\L	.	8cc\L	8ee\L	.	(8A\L	-ca-	8ff#\L	-ca-	8dd\L	8ff#\L
8F#\	.	8aa\	8ccc\	.	8F#\J)	.	8aa\	.	8ff#\	8aa\
8G\J	.	8gg\J	8bb\J	.	8G\	-ta	8gg\J	-ta	8gg\J	8bb\J
=5	=5	=5	=5	=5	=5	=5	=5	=5	=5	=5
.	.	.	.	.	.	.	8qqgg/	.	.	.
8d\L	.	8ff#\L	8aa\L	.	8d\	mun-	8ff#\	mun-	8ff#\L	8aa\L
8d\J	.	8ff#\J	8aa\J	.	8D/	-di	8ff#\	-di	8ff#\J	8aa\J
8r	.	8r	8r	.	8r	.	8r	.	8r	8r
=6	=6	=6	=6	=6	=6	=6	=6	=6	=6	=6
!	!	!LO:TX:a:t=1	!	!	!	!	!	!	!	!
8d\L	.	4.r	4.r	.	(8d\L	mi-	4.r	.	4ff#\	4aa\
8c\	.	.	.	.	8c\J)	.	.	.	.	.
8d\J	.	.	.	.	8d\	-se-	.	.	8r	8r
=7	=7	=7	=7	=7	=7	=7	=7	=7	=7	=7
8B\L	x 6	4dd\	(8gg\L	.	(8B\L	-re-	(8gg\L	mi-	4gg\	4bb\
8A\	.	.	8ff#\J)	.	8A\J)	.	8ff#\J)	.	.	.
8B\J	.	8r	8gg\|	.	8B\	-re	8gg\	-se-	8r	8r
=8	=8	=8	=8	=8	=8	=8	=8	=8	=8	=8
*	*	*	*	*	*	*ij	*	*	*	*
8c\L	.	4g/	(8ee\L	.	(8c\L	mi-	(8ee\L	-re-	4ee\	4gg\
8B\	.	.	8dd\J)	.	8B\J)	.	8dd\)	.	.	.
8c\J	.	8r	8ee\|	.	8c\	-se-	8ee\J|	-re	8r	8r
=9	=9	=9	=9	=9	=9	=9	=9	=9	=9	=9
*	*	*	*	*	*	*	*	*ij	*	*
!	!	!	!	!	!LO:LB:g=original	!	!LO:LB:g=original	!	!	!
8A\L	.	4cc\	(8ff#\L	.	8A\L	-re-	(8ff#\L	mi-	4ff#\	4aa\
8G\	.	.	8ee\J)	.	8G\J	.	8ee\J)	.	.	.
8A\J	.	8r	8ff#\|	.	8A\	-re	8ff#\	-se-	8r	8r
=10	=10	=10	=10	=10	=10	=10	=10	=10	=10	=10
8B\L	.	4f#/	(8dd\L	.	(8B\L	mi-	(8dd\L	-re-	4dd\	4ff#\
8A\	.	.	8cc#X\J)	.	8A\J)	.	8cc#X\J)	.	.	.
8B\J	.	8r	8dd\	.	8B\	-se-	8dd\	-re	8r	8r
=11	=11	=11	=11	=11	=11	=11	=11	=11	=11	=11
8G\L	.	4b\	(8ee\L	.	(8G\L	-re-	(8ee\L	mi-	4ee\	4gg\
8F#\	.	.	8dd\J)	.	8F#\J)	.	8dd\J)	.	.	.
8G\J	.	8r	8ee\|	.	8G\	-re	8ee\	-se-	8r	8r
=12	=12	=12	=12	=12	=12	=12	=12	=12	=12	=12
8A\L	.	8e/L	4ccn\	.	(8A\L	mi-	4ccn\	-re-	4a/	4ee\
8G\	.	8e/	.	.	8G\J)	.	.	.	.	.
8F#\J	.	8a/J	8dd\	.	8F#\	-se-	8dd\	-re	8r	8ff#\
*	*	*	*	*	*	*Xij	*	*Xij	*	*
=13	=13	=13	=13	=13	=13	=13	=13	=13	=13	=13
8G\L	.	8d/L	8b/L	.	8G\L	-re-	8b\L	mi-	4dd\	8gg\L
8D\	.	8c/	8f#/	.	8D\	.	8f#\	.	.	8ff#\
8E\J	.	8B/J	[8g/J	.	8E\J	.	8g\J	-se-	8ee\	8gg\J
=14	=14	=14	=14	=14	=14	=14	=14	=14	=14	=14
!LO:TX:t=P:problem=mixed beam	!	!LO:LB:g=original	!LO:N:vis:xstem:cue	!	!	!	!	!	!	!LO:LB:g=original
8C\L	.	8e/	16g/]	.	8C/	-re	16g\	-re-	8ee\L	8aa\
.	.	.	16a/	.	.	.	16a\	-re	.	.
8D\	.	4f#/	4aT/	.	4D/	no-	4aT\	no-	8dd\	4ff#\
8DD/J	.	.	.	.	.	.	.	.	8dd\J	.
=15	=15	=15	=15	=15	=15	=15	=15	=15	=15	=15
!LO:TX:t=P:problem=mixed beam	!	!	!LO:TX:t=P:problem=mixed beam	!	!	!	!	!	!LO:LB:g=original	!
8GG/L	.	8d/L	8g/L	.	8GG/	-bis	8g\	-bis	4dd\	4gg\
!	!	!LO:TX:t=P:problem=8dd poprawione na 8b	!	!	!	!	!	!	!	!
!	!	!LO:TX:a:t=b	!	!	!	!	!	!	!	!
8G\	.	8b/	8dd\	.	8G\	mi-	8b\	mi-	.	.
!	!	!LO:TX:t=P:problem=8cc poprawione na 8b	!	!	!	!	!	!	!	!
!	!	!LO:TX:a:t=b	!	!	!	!	!	!	!	!
8E\J	.	8b/J	8gg\J	.	8E\	-se-	8b\	-se-	8ee\	8gg\
=16	=16	=16	=16	=16	=16	=16	=16	=16	=16	=16
!LO:LB:g=original	!	!	!LO:LB:g=original	!	!	!	!	!	!	!
8A\L	.	8cc#X\L	8ee\L	.	(8A\L	-re-	4cc#X\	-re-	4a/	4ee\
!	!	!LO:SIC:v:s=8cc#\	!	!	!	!	!	!	!	!
8F#\	.	8dd\	8aa\	.	8F#\J)	.	.	.	.	.
8B\J	.	8dd\J	8ff#\J	.	8B\	-re	(8dd\	.	8ee\	8ff#\
=17	=17	=17	=17	=17	=17	=17	=17	=17	=17	=17
!LO:TX:t=P:problem=mixed beam	!	!	!	!	!	!	!	!	!	!
8G\L	.	8ee\	16bb\LL	.	(8G\	no-	8ee\)	-re	8ee\	8gg\
.	.	.	16gg\JJ	.	.	.	.	.	.	.
8A\	.	4cc#X\	4ee\	.	4A\)	.	4cc#X\	no-	4a/	4ee\
8AA/J	.	.	.	.	.	.	.	.	.	.
=18	=18	=18	=18	=18	=18	=18	=18	=18	=18	=18
!LO:TX:a:t=Solo	!	!	!	!	!	!	!	!	!LO:TX:t=P:problem=mixed beam	!
8D\L	.	8dd\L	8dd\L	.	4D\	-bis	4dd\	-bis	8f#/L	8dd\L
!	!	!LO:SIC:v:s=8ff#\	!	!	!	!	!	!	!	!
8D\	.	8ee\	8ff#\	.	.	.	.	.	8dd\	8ff#\
8E\J	.	8gg\J	8gg\J	.	8r	.	8r	.	8ee\J	8gg\J
=19	=19	=19	=19	=19	=19	=19	=19	=19	=19	=19
*	*	*Xtuplet	*	*	*	*	*	*	*	*
!	!	!	!	!	!	!	!LO:LB:g=original	!	!	!
4F#\	.	8aa\	8aa\	.	1.r	.	1.r	.	4ff#\	8aa\L
!	!	!LO:TUP:a:problem=klamra łukowa	!LO:TUP:a:problem=klamra łukowa	!	!	!	!	!	!	!
.	.	24ff#\LL	24ff#\LL	.	.	.	.	.	.	8ddd\
.	.	24gg\	24gg\	.	.	.	.	.	.	.
.	.	24aa\JJ	24aa\JJ	.	.	.	.	.	.	.
!	!	!LO:TUP:b:problem=klamra łukowa	!LO:TUP:b:problem=klamra łukowa	!	!	!	!	!	!	!
8D\	.	24a/LL	24a/LL	.	.	.	.	.	8ff#\	8aa\J
.	.	24b/	24b/	.	.	.	.	.	.	.
!	!	!	!LO:SIC:v:s=24cc#/JJ	!	!	!	!	!	!	!
.	.	24cc#X/JJ	24cc/JJ	.	.	.	.	.	.	.
=20	=20	=20	=20	=20	=20	=20	=20	=20	=20	=20
.	.	.	.	.	.	.	.	.	.	(<16qqaa/LL
!	!	!	!LO:TX:t=P:problem=mixed beam	!	!	!	!	!	!	!
.	.	.	.	.	.	.	.	.	.	16qqbb/JJ
4G\	.	8b\L	8b/L	.	.	.	.	.	4gg\	4bb\)
.	.	8bb\	8bb\	.	.	.	.	.	.	.
8F#\	.	8aa\J	8aa\J	.	.	.	.	.	8ff#\	8aa\
=21	=21	=21	=21	=21	=21	=21	=21	=21	=21	=21
!	!	!	!	!	!	!	!	!	!LO:TX:t=P:problem=mixed beam	!LO:TX:t=P:problem=mixed beam
16E\LL	.	16gg\LL	16gg\LL	.	.	.	.	.	8ee\L	8gg\L
16D\	.	16ff#\	16ff#\	.	.	.	.	.	.	.
16C#X\	.	16ee\	16ee\	.	.	.	.	.	8a/	8cc#/
16BB\JJ	.	16dd\	16dd\	.	.	.	.	.	.	.
8AA/	.	16cc#X\	16cc#X\	.	.	.	.	.	8ee\J	8gg\J
.	.	16b\JJ	16b\JJ	.	.	.	.	.	.	.
=22	=22	=22	=22	=22	=22	=22	=22	=22	=22	=22
8D\L	.	16a/LL	16a/LL	.	.	.	.	.	8dd\L	8ff#\L
.	.	16f#/	16f#/	.	.	.	.	.	.	.
8E\	x 6	16g/	16g/	.	.	.	.	.	8ee\	8gg\
.	.	16e/	16e/	.	.	.	.	.	.	.
8F#\J	.	16f#/	16f#/	.	.	.	.	.	8ff#\J	8aa\J
.	.	16d/JJ	16d/JJ	.	.	.	.	.	.	.
=23	=23	=23	=23	=23	=23	=23	=23	=23	=23	=23
!LO:TX:t=P:problem=mixed beam	!	!	!LO:TUP:b	!	!	!	!	!	!LO:TX:t=P:problem=mixed beam	!
8G\L	.	16g/LL	24g/LL	.	4.r	.	4.r	.	8ee\L	8gg\
.	.	.	24f#/	.	.	.	.	.	.	.
.	.	16e/JJ	.	.	.	.	.	.	.	.
.	.	.	24e/JJ	.	.	.	.	.	.	.
8A\	.	4c#X/	4eT/	.	.	.	.	.	8a/	4ee\
8AA/J	.	.	.	.	.	.	.	.	8a/J	.
=24	=24	=24	=24	=24	=24	=24	=24	=24	=24	=24
!	!	!	!	!	!LO:LB:g=original	!	!	!	!	!
4DD/	.	4d/	4d/	.	8r	.	8r	.	4f#/	4dd\
.	.	.	.	.	8F#\	a-	8dd\	A-	.	.
8r	.	8r	8r	.	8G\	-gnus	8ee\	-gnus	8r	8r
=25	=25	=25	=25	=25	=25	=25	=25	=25	=25	=25
!	!	!LO:TX:t=P:problem=łuk nad 3	!	!	!	!	!	!	!	!
!	!	!LO:TX:a:t=3	!	!	!	!	!	!	!	!
8r	.	2.r	2.r	.	8A\	De-	8ff#\	De-	1.r	1.r
8r	.	.	.	.	8F#\	-i	8dd\	-i	.	.
8D/	.	.	.	.	8A\	qui	8ff#\	Qui	.	.
=26	=26	=26	=26	=26	=26	=26	=26	=26	=26	=26
16GG/LL	.	.	.	.	8B\	tol-	8gg\	tol-	.	.
16AA/	.	.	.	.	.	.	.	.	.	.
16BB/	.	.	.	.	8B\	-lis	8gg\	-lis	.	.
16C/J	.	.	.	.	.	.	.	.	.	.
8D/J	.	.	.	.	8A\	pec-	8ff#\	pec-	.	.
=27	=27	=27	=27	=27	=27	=27	=27	=27	=27	=27
8C#X/L	.	4.r	4.r	.	(8G\L	-ca-	(8ee\L	-ca-	.	.
8AA/	.	.	.	.	8E\J)	.	8cc#X\J)	.	.	.
8D/J	.	.	.	.	8F#\	-ta	8dd\	-ta	.	.
=28	=28	=28	=28	=28	=28	=28	=28	=28	=28	=28
!LO:TX:t=P:problem=mixed beam	!	!	!	!	!	!	!	!	!	!
16A\LL	.	8r	8r	.	8F#\	mun-	8dd\	mun-	.	.
16AA/JJ	.	.	.	.	.	.	.	.	.	.
!	!	!	!	!LO:DY:a:t=pia:rj	!	!	!	!	!	!
16A\LL	.	16a/LL	16a/LL	p	8E\	-di	4cc#X\	-di	.	.
16G\	.	16g/	16g/	.	.	.	.	.	.	.
16F#\	.	16f#/	16f#/	.	8r	.	.	.	.	.
16E\JJ	.	16e/JJ	16e/JJ	.	.	.	.	.	.	.
=29	=29	=29	=29	=29	=29	=29	=29	=29	=29	=29
!	!	!LO:LB:g=original	!	!	!	!	!	!	!	!
4D/	.	4d/	4d/	.	8F#\L	mi-	(8dd\L	mi-	1.r	1.r
.	.	.	.	.	8E\J	.	8cc#X\J)	.	.	.
8r	.	8r	8r	.	8F#\	-se-	8dd\	-se-	.	.
=30	=30	=30	=30	=30	=30	=30	=30	=30	=30	=30
8G\L	.	8g/L	8g/L	.	4D\	-re-	4b\	-re-	.	.
8F#\	.	8f#/	8f#/	.	.	.	.	.	.	.
8G\J	.	8g/J	8g/J	.	8D\	-re	8b\	-re	.	.
=31	=31	=31	=31	=31	=31	=31	=31	=31	=31	=31
*	*	*	*	*	*	*ij	*	*ij	*	*
4E\	.	4e/	4e/	.	(8G\L	mi-	(8ee\L	mi-	.	.
.	.	.	.	.	8F#\J)	.	8dd\J)	.	.	.
8E\	.	8e/	8e/	.	8G\	-se-	8ee\	-se-	.	.
=32	=32	=32	=32	=32	=32	=32	=32	=32	=32	=32
.	.	.	.	.	8qF#/	.	8qdd/	.	.	.
8A\L	.	8a/L	8a/L	.	4E\	-re-	4cc#X\	-re-	.	.
8G\	.	8g/	8g/	.	.	.	.	.	.	.
8A\J	.	8a/J	8a/J	.	8E\	-re	8cc#\	-re	.	.
*	*	*	*	*	*	*Xij	*	*Xij	*	*
=33	=33	=33	=33	=33	=33	=33	=33	=33	=33	=33
!LO:TX:t=P:problem=mixed beam	!	!LO:TX:t=P:problem=mixed beam	!LO:TX:t=P:problem=mixed beam	!	!	!	!LO:LB:g=original	!	!	!
8D/L	.	8d/L	8d/L	.	8r	.	8r	.	1.r	1.r
8d\	.	8dd\	8dd\	.	8d\	mi-	8ff#\	Mi-	.	.
8A\J	.	8a\J	8a\J	.	8A\	-se-	8cc#X\	-se-	.	.
=34	=34	=34	=34	=34	=34	=34	=34	=34	=34	=34
!LO:LB:g=original	!	!	!	!	!LO:LB:g=original	!	!	!	!	!
8B\L	.	8b/L	8b/L	.	8B\L	-re-	4.dd\	-re-	.	.
16A\L	.	16a/L	16a/L	.	16A\L	.	.	.	.	.
16G\J	.	16g/J	16g/J	.	16G\JJ	.	.	.	.	.
8F#\J	.	8f#/J	8f#/J	.	8F#\	-re	.	.	.	.
=35	=35	=35	=35	=35	=35	=35	=35	=35	=35	=35
!LO:TX:t=P:problem=mixed beam	!	!	!LO:LB:g=original	!	!	!	!	!	!	!
8G\L	.	8g/L	8g/L	.	8G\	no-	16dd\LL	-re	.	.
.	.	.	.	.	.	.	16ee\JJ	.	.	.
8A\	.	8a/	8a/	.	4A\	.	4ee\	no-	.	.
8AA/J	.	8A/J	8A/J	.	.	.	.	.	.	.
=36	=36	=36	=36	=36	=36	=36	=36	=36	=36	=36
8D\L	.	8d/L	8d/L	.	8D/	-bis	8dd\	-bis	.	.
16G\L	.	16g/L	16g/L	.	8r	.	8dd\	mi-	.	.
16A\	.	16a/	16a/	.	.	.	.	.	.	.
16B\	.	16b/	16b/	.	8r	.	8gg\	-se-	.	.
16cn\JJ	.	16cc/JJ	16cc/JJ	.	.	.	.	.	.	.
=37	=37	=37	=37	=37	=37	=37	=37	=37	=37	=37
!LO:TX:t=P:problem=mixed beam	!	!LO:TX:t=P:problem=mixed beam	!LO:TX:t=P:problem=mixed beam	!	!	!	!	!	!	!
8d\L	.	8dd\L	8dd\L	.	8r	.	4ff#\	-re-	2.r	2.r
!LO:TX:t=P:problem=mixed beam	!	!LO:TX:t=P:problem=mixed beam	!LO:TX:t=P:problem=mixed beam	!	!	!	!	!	!	!
8D/	.	8d/	8d/	.	8D\	mi-	.	.	.	.
8d\J	.	8dd\J	8dd\J	.	8cn\	-se-	8ff#\	-re	.	.
=38	=38	=38	=38	=38	=38	=38	=38	=38	=38	=38
!LO:N:vis=4	!	!	!	!	!	!	!	!	!	!
8G\L	.	8g/L	8g/L	.	8B\L	-re-	8gg\	Mi-	.	.
!LO:N:vis=4	!	!	!	!	!	!	!	!	!	!
8A\	.	8a/	8a/	.	8A\	.	(16gg\LL	-se-	.	.
.	.	.	.	.	.	.	16ee\JJ)	.	.	.
!LO:N:vis=4	!	!	!	!	!	!	!	!	!	!
8B\J	.	8b/J	8b/J	.	8B\J	.	8dd\	-re-	.	.
=39	=39	=39	=39	=39	=39	=39	=39	=39	=39	=39
!LO:TX:t=P:problem=mixed beam	!	!LO:TX:t=P:problem=mixed beam	!LO:TX:t=P:problem=mixed beam	!	!	!	!	!	!	!
8c\L	.	8cc\L	8cc\L	.	8c\	-re	16cc\LL	-re	4.r	4.r
.	.	.	.	.	.	.	16b\JJ	.	.	.
.	.	.	.	.	.	.	8qqb/	.	.	.
8d\	.	8dd\	8dd\	.	4d\	no-	4a\	no-	.	.
8D/J	.	8d/J	8d/J	.	.	.	.	.	.	.
=40	=40	=40	=40	=40	=40	=40	=40	=40	=40	=40
!	!	!LO:TX:t=P:problem=mixed beam	!LO:TX:t=P:problem=mixed beam	!	!	!	!	!	!	!
8G\L	.	8g/L	8g/L	.	8G\	-bis	8g\	-bis	8r	8r
8G\	.	8dd\	8bb\	.	8G\	a-	8dd\	a-	8gg\L	8bb\L
8G\J	.	8dd\J	8bb\J	.	8G\	-gnuſ	8gg\	-gnuſ	8gg\J	8bb\J
=41	=41	=41	=41	=41	=41	=41	=41	=41	=41	=41
8d\L	.	8ff#\L	8aa\L	.	8d\	De-	8ff#\	De-	8ff#\L	8aa\L
8d\	.	8ff#\	8aa\	.	8d\	-i	8ff#\	-i	8ff#\	8aa\
8d\J	.	8dd\J	8ff#\J	.	8d\	qui	8ff#\	qui	8ff#\J	8aa\J
=42	=42	=42	=42	=42	=42	=42	=42	=42	=42	=42
!	!	!	!	!	!	!	!	!	!	!LO:LB:g=original
8B\L	.	8dd\L	8gg\L	.	8B\	tol-	8gg\	tol-	4dd\	4gg\
8B\	.	8dd\	8gg\	.	8B\	-lis	8gg\	-lis	.	.
8F#\J	.	8dd\J	8aa\J	.	8F#\	pec-	8dd\	pec-	8ff#\	8aa\
=43	=43	=43	=43	=43	=43	=43	=43	=43	=43	=43
!	!	!LO:LB:g=original	!	!	!	!	!LO:LB:g=original	!	!LO:LB:g=original	!
8G\L	.	4dd\	8bb\L	.	(8G\L	-ca-	(8b\L	-ca-	8gg\L	8bb\L
8F#\	x 6\	.	8aa\	.	8F#\J)	.	8a\J)	.	8ff#\	8aa\
8E\J	.	8cc#X\	8gg\J	.	8E\	-ta	8g\	-ta	8ee\J	8gg\J
=44	=44	=44	=44	=44	=44	=44	=44	=44	=44	=44
!	!	!	!	!	!LO:LB:g=original	!	!	!	!	!
8D/L	.	8A/L 8a 8dd	8d/L 8a 8ff#	.	8D\	mun-	8f#/	mun-	8ff#\L	8aa\L
8D/J	.	8A/J 8a 8dd	8d/J 8a 8ff#	.	8D\	-di	8d/	-di	8ff#\J	8aa\J
!	!	!	!	!	!LO:TX:t=P:problem=pojedyncza kreska taktowa	!	!	!	!	!LO:TX:t=P:problem=pojedyncza kreska taktowa
8r;	.	8r	8r	.	8r	.	8r	.	8r	8r
=45||	=45||	=45||	=45||	=45||	=45	=45	=45||	=45||	=45||	=45
*M2/2	*	*M2/2	*M2/2	*	*M2/2	*	*M2/2	*	*M2/2	*M2/2
*met(C.)	*	*met(C.)	*met(C.)	*	*met(C.)	*	*met(C.)	*	*met(C.)	*met(C.)
*	*	*	*	*	*	*	*2\right	*	*	*
!LO:TX:a:t=Adagio	!	!LO:TX:a:t=Adagio	!	!	!LO:TX:b:t=adagio	!	!LO:TX:a:t=Adagio	!	!LO:TX:a:t=Adagio	!LO:TX:a:t=Adagio
4.D/	.	4.f#/	4.a/	.	4.D/	Mi-	4.a\	Mi-	8r	8r
.	.	.	.	.	.	.	.	.	8d/L	8d/L
.	.	.	.	.	.	.	.	.	8d/	8d/
8D/	.	8f#/	8a/	.	8D/	-se-	8a\	-se-	8d/J	8d/J
4D/	.	4g/	4b-X\	.	4D/	-re-	4b-X\	-re-	4d/	4d/
4D/	x 6	4f#/	8dd\L	.	4D/	-re	4a\	-re	8r	8r
.	x 4	.	8a\J	.	.	.	.	.	8d/	8d/
=46	=46	=46	=46	=46	=46	=46	=46	=46	=46	=46
!	!	!LO:TX:b:t=g	!	!	!	!	!	!	!	!
2D/	x 6	2g/	2b-X/	.	2D/	no-	2b-X\	no-	8d/L	8d/L
.	.	.	.	.	.	.	.	.	16d/L	16d/L
.	6 4	.	.	.	.	.	.	.	16d/JJ	16d/JJ
.	.	.	.	.	.	.	.	.	16d/LL	16d/LL
.	.	.	.	.	.	.	.	.	16d/	16d/
.	.	.	.	.	.	.	.	.	16d/	16d/
.	.	.	.	.	.	.	.	.	16d/JJ	16d/JJ
!	!	!LO:TX:b:t=f	!	!	!	!	!	!	!	!
2D;/	x #	2f#/	2a/	.	2D/	-bis.	2a;\	-bis.	2d;/	2d;;/
!LO:TX:a:t=Laus Deo	!	!	!	!	!LO:TX:b:t=Dona nobis ut Kirie Allegro.	!	!LO:TX:b:t=Dona nobis ut Kirie eleyson Allegro	!	!LO:TX:b:t=Finis.	!LO:TX:b:t=Finis.
!LO:TX:b:t=Dona nobis ut Kyrie allegro.:rj	!	!LO:TX:b:t=Dona nobis ut Kirie allegro	!LO:TX:b:t=Dona nobis ut Kyrie Allegro.	!	!LO:TX:b:t=Laus Deo.	!	!LO:TX:b:t=Laus Deo.	!	!LO:TX:b:t=Dona nobis ut Kirie allegro.	!LO:TX:b:t=Dona nobis ut Kirie Allegro.
==	==	==	==	==	==	==	==	==	==	==
*-	*-	*-	*-	*-	*-	*-	*-	*-	*-	*-
!!!system-decoration: [(g1)][(g2)][(g3)]s7
!!!RDF**kern: | = vertical stroke
!!!RDF**kern: > = above
!!!RDF**kern: < = below
!!!ENC: Katarzyna Serwa
!!!END: 2020-12-17
!!!ENC: Krzysztof Stępień
!!!END: 2022-03-23
!!!YEC: Copyright 2022 Narodowy Instytut Fryderyka Chopina (https://polishscores.org)
!!!YEM: License CC-BY-4.0 (https://creativecommons.org/licenses/by/4.0)
